outputs/icons/general/lock_undo_round.svg

<svg xmlns="http://www.w3.org/2000/svg" width="1200" height="1200" fill="none"><path fill="#000" d="M600 850c55 0 100-45 100-100s-45-100-100-100-100 45-100 100 45 100 100 100m300-450h-50V300c0-138-112-250-250-250-121.854 0-223.435 87.325-245.538 202.767C349.529 278.532 371.267 300 397.5 300s46.777-21.761 54.702-46.769C472.071 190.535 530.795 145 600 145c85.5 0 155 69.5 155 155v100H300c-55 0-100 45-100 100v500c0 55 45 100 100 100h600c55 0 100-45 100-100V500c0-55-45-100-100-100m0 600H300V500h600z"/></svg>

<svg width="1200" height="1200" viewBox="0 0 1200 1200" fill="none" xmlns="http://www.w3.org/2000/svg"><path d="M600 850C655 850 700 805 700 750C700 695 655 650 600 650C545 650 500 695 500 750C500 805 545 850 600 850ZM900 400H850V300C850 162 738 50 600 50C478.146 50 376.565 137.325 354.462 252.767C349.529 278.532 371.267 300 397.5 300C423.733 300 444.277 278.239 452.202 253.231C472.071 190.535 530.795 145 600 145C685.5 145 755 214.5 755 300V400H300C245 400 200 445 200 500V1000C200 1055 245 1100 300 1100H900C955 1100 1000 1055 1000 1000V500C1000 445 955 400 900 400ZM900 1000H300V500H900V1000Z" fill="black"/></svg>
